X: 25238
T: Mama's Pet
R: reel
M: 4/4
K: Gmajor
G2FG EGDE|G2BG dGBG|G2FG EFGA|Bded B2AF|
(3FGF ED EDEF|GBB2 GBAF|(3FGF ED EFGA|Bded B2gf||
eAA2 eAA2|B~G3 Bcdg|eAA2 edBA|Bded B2gf|
e2dg edBA|GFGA BABd|e3f gfef|g2fg edBA||

